X:1
T:Title
%%score 1 ( 2 3 )
L:1/8
Q:1/4=100
M:4/4
K:Ab
V:1 treble nm="Strings 1, Treble"
V:2 bass nm="Strings 1, Bass"
V:3 bass 
V:1
 [Ec]>[=D_c] [E=c]>[D_c] [E=c]>[_DB] [CA]>[DF] | [CE]4 [CA]4 | %2
 [Ed]>[Ec] [Ed]>[Ec] [Ed]>[DB] [CA]>[DB] | [Ec]6 z2 | [FA]>[=EG] [FA]>[EG] [FA]>[GB] [FA]>[DF] | %5
 [CE]4 [Ec]4 | [Ed]>[EB] [EB]>[EA] [EG]>[Ed] [Ac]>[GB] | [EA]6 [A,C]>[B,D] | %8
 [CE]2 [CE][CE] [CE]2 [EA][EB] | [Ec]4 [CE]2 [Bd]>[Ac] | [GB]4 E2 [Ec]>[DB] | %11
 [CA]4 [CE]2 [CA]>[EG] | [DF]2 [DF]2 [DF][FA][EG][DF] | %13
 [CE]2 [CA]2 [=DA]2[Q:1/4=100] [DA]>[DB][Q:1/4=12] | [Ec]2 [Ec][Ed] [Ec][DB][CA][DG] | [CA]6 z2 |] %16
V:2
 [A,,A,]>[A,,A,] [A,,A,]>[A,,A,] [A,,A,]>[A,,A,] [A,,E,]>[A,,F,] | [A,,A,]4 E,2 A,2 | %2
w: 1.~For~ a~ fresh~ a noint ing,~ Lord,~ for~|ser vice~ *|
 [E,B,]>[E,=A,] [E,B,]>[E,A,] [E,B,]>[E,G,] [E,_A,]>[E,G,] | A,6 z2 | %4
w: Come~ we~ now~ in~ Je sus'~ pre cious~|name;~|
 [D,D]>[D,D] [D,D]>[D,D] [D,D]>[D,D] [D,D]>[D,A,] | [A,,A,]4 A,4 | %6
w: For~ the~ bless ed~ Pen te cos tal~|full ness,~|
 [E,B,]>[E,D] [E,D]>[E,C] [E,B,]>[E,G,] [E,E]>[E,D] | [A,,C]6 [A,,E,]>[A,,E,] | %8
w: Eve ry~ heart~ with~ heav'n ly~ love~ a|flame.~ * *|
 [A,,A,]2 [A,,A,][A,,A,] [A,,A,]2 [C,A,][E,G,] | A,[A,,A,][C,A,][E,A,] A,2 z2 | %10
w: ||
 [E,E]>[E,E] [G,E][B,E] G,-[D,G,] [C,A,]>[E,G,] | %11
w: |
 [A,,A,][A,,E,][A,,E,][A,,F,] [A,,A,]2 [A,,A,]>[A,,A,] | [D,A,]2 [D,A,]2 A,D[D,A,][D,A,] | %13
w: ||
 A,2 [F,A,]2 [=E,A,]2 [E,A,]>[E,A,] | [E,A,]2 [E,A,][E,B,] A,G,E,E, | [A,,E,]6 z2 |] %16
w: |||
V:3
 x8 | z4 A,,4 | x8 | x8 | x8 | x8 | x8 | x8 | x8 | x8 | z4 .E,2 z2 | x8 | z4 D,2 z2 | x8 | %14
 z4 E,2 z2 | x8 |] %16

